Numix-Light/16/status/indicator-keyboard-It-3.svg

<?xml version="1.0" encoding="UTF-8" standalone="no"?>
<svg
   xmlns:dc="http://purl.org/dc/elements/1.1/"
   xmlns:cc="http://creativecommons.org/ns#"
   xmlns:rdf="http://www.w3.org/1999/02/22-rdf-syntax-ns#"
   xmlns:svg="http://www.w3.org/2000/svg"
   xmlns="http://www.w3.org/2000/svg"
   xmlns:sodipodi="http://sodipodi.sourceforge.net/DTD/sodipodi-0.dtd"
   xmlns:inkscape="http://www.inkscape.org/namespaces/inkscape"
   viewBox="0 0 16 16"
   id="svg2"
   version="1.1"
   inkscape:version="0.91 r13725"
   sodipodi:docname="indicator-keyboard-It-3.svg">
  <metadata
     id="metadata14">
    <rdf:RDF>
      <cc:Work
         rdf:about="">
        <dc:format>image/svg+xml</dc:format>
        <dc:type
           rdf:resource="http://purl.org/dc/dcmitype/StillImage" />
      </cc:Work>
    </rdf:RDF>
  </metadata>
  <defs
     id="defs12" />
  <sodipodi:namedview
     pagecolor="#ffffff"
     bordercolor="#666666"
     borderopacity="1"
     objecttolerance="10"
     gridtolerance="10"
     guidetolerance="10"
     inkscape:pageopacity="0"
     inkscape:pageshadow="2"
     inkscape:window-width="640"
     inkscape:window-height="480"
     id="namedview10"
     showgrid="false"
     inkscape:zoom="14.75"
     inkscape:cx="8"
     inkscape:cy="8"
     inkscape:window-x="65"
     inkscape:window-y="24"
     inkscape:window-maximized="0"
     inkscape:current-layer="svg2" />
  <path
     style="fill:#353535;fill-opacity:1"
     d="M 1.5996094 0 C 0.71320937 2.9605947e-16 0 0.71320937 0 1.5996094 L 0 14.400391 C 2.9605947e-16 15.286791 0.71320937 16 1.5996094 16 L 14.400391 16 C 15.286791 16 16 15.286791 16 14.400391 L 16 1.5996094 C 16 0.71320937 15.286791 0 14.400391 0 L 1.5996094 0 z M 4.1386719 4.859375 L 4.75 4.859375 L 4.75 11.095703 L 4.1386719 11.095703 L 4.1386719 4.859375 z M 6.8847656 4.9667969 L 6.8847656 6.4433594 L 8.7382812 6.4433594 L 8.7382812 6.9375 L 6.8847656 6.9375 L 6.8847656 9.4121094 C 6.8847656 9.6761094 6.9052656 9.8925467 6.9472656 10.060547 C 6.9952656 10.222547 7.0605312 10.349453 7.1445312 10.439453 C 7.2285313 10.529453 7.3311719 10.589141 7.4511719 10.619141 C 7.5711719 10.649141 7.7036562 10.664062 7.8476562 10.664062 C 8.0936563 10.664062 8.2914062 10.636031 8.4414062 10.582031 C 8.5914062 10.522031 8.7089688 10.469875 8.7929688 10.421875 L 8.9355469 10.90625 C 8.8515469 10.96025 8.7060938 11.023703 8.4960938 11.095703 C 8.2860938 11.161703 8.0565469 11.195313 7.8105469 11.195312 C 7.5225469 11.195312 7.2800312 11.159891 7.0820312 11.087891 C 6.8900312 11.009891 6.7332813 10.894141 6.6132812 10.744141 C 6.4992813 10.588141 6.4190938 10.397922 6.3710938 10.169922 C 6.3230937 9.9419217 6.2988281 9.671375 6.2988281 9.359375 L 6.2988281 5.0742188 L 6.8847656 4.9667969 z M 10.492188 8.7539062 C 10.694987 8.7539062 10.869372 8.7793781 11.013672 8.8300781 C 11.161872 8.8807781 11.283359 8.953275 11.380859 9.046875 C 11.478359 9.136575 11.550856 9.2463 11.597656 9.375 C 11.644456 9.4997999 11.667969 9.6350031 11.667969 9.7832031 C 11.667969 10.021103 11.603309 10.217041 11.474609 10.369141 C 11.349809 10.517341 11.189134 10.625106 10.990234 10.691406 C 11.099434 10.718706 11.203287 10.759859 11.304688 10.818359 C 11.409987 10.872959 11.504038 10.945456 11.585938 11.035156 C 11.667838 11.120956 11.734456 11.226762 11.785156 11.351562 C 11.835856 11.476362 11.861328 11.623316 11.861328 11.791016 C 11.861328 11.962616 11.829978 12.119372 11.767578 12.263672 C 11.709078 12.407972 11.618947 12.535331 11.498047 12.644531 C 11.381047 12.749831 11.232128 12.834084 11.048828 12.896484 C 10.865528 12.954984 10.649997 12.984375 10.404297 12.984375 C 10.275597 12.984375 10.156075 12.974578 10.046875 12.955078 C 9.9415753 12.939478 9.8494781 12.919884 9.7675781 12.896484 C 9.6856781 12.873084 9.6151406 12.849572 9.5566406 12.826172 C 9.5020406 12.802772 9.4608937 12.783178 9.4335938 12.767578 L 9.5332031 12.427734 C 9.5566031 12.443334 9.5957906 12.462928 9.6503906 12.486328 C 9.7049906 12.509728 9.7696501 12.533241 9.84375 12.556641 C 9.92175 12.576141 10.00601 12.593775 10.099609 12.609375 C 10.197109 12.624975 10.302916 12.632813 10.416016 12.632812 C 10.786516 12.632812 11.052991 12.556397 11.212891 12.404297 C 11.372791 12.248297 11.451172 12.040597 11.451172 11.779297 C 11.451172 11.607697 11.417863 11.464662 11.351562 11.351562 C 11.289162 11.238462 11.202944 11.148331 11.089844 11.082031 C 10.980644 11.011831 10.851325 10.962847 10.703125 10.935547 C 10.558825 10.904347 10.404034 10.888672 10.240234 10.888672 L 10.181641 10.888672 L 10.181641 10.574219 L 10.316406 10.574219 C 10.421706 10.574219 10.529472 10.564422 10.638672 10.544922 C 10.751772 10.521522 10.853659 10.480375 10.943359 10.421875 C 11.036959 10.363375 11.113375 10.285 11.171875 10.1875 C 11.234275 10.09 11.263672 9.9646001 11.263672 9.8125 C 11.263672 9.6838 11.244072 9.5760281 11.201172 9.4863281 C 11.158272 9.3927281 11.099491 9.3182719 11.025391 9.2636719 C 10.955191 9.2090719 10.870937 9.1698844 10.773438 9.1464844 C 10.679837 9.1191844 10.579909 9.1054687 10.474609 9.1054688 C 10.264009 9.1054688 10.101375 9.1348594 9.984375 9.1933594 C 9.8673751 9.2518594 9.7713656 9.3067219 9.6972656 9.3574219 L 9.5332031 9.0585938 C 9.5722031 9.0312937 9.6211875 8.9999438 9.6796875 8.9648438 C 9.7420875 8.9297438 9.8145844 8.8964344 9.8964844 8.8652344 C 9.9783841 8.8340344 10.066562 8.8085625 10.164062 8.7890625 C 10.265462 8.7656625 10.375188 8.7539062 10.492188 8.7539062 z "
     id="path4" />
</svg>

<svg xmlns="http://www.w3.org/2000/svg" viewBox="0 0 16 16">
 <path d="m 1.6 0 c -0.886 0 -1.6 0.713 -1.6 1.6 l 0 12.801 c 0 0.886 0.713 1.6 1.6 1.6 l 12.801 0 c 0.886 0 1.6 -0.713 1.6 -1.6 l 0 -12.801 c 0 -0.886 -0.713 -1.6 -1.6 -1.6 l -12.801 0 z m 2.539 4.859 l 0.611 0 l 0 6.236 l -0.611 0 l 0 -6.236 z m 2.746 0.107 l 0 1.477 l 1.854 0 l 0 0.494 l -1.854 0 l 0 2.475 c 0 0.264 0.021 0.48 0.063 0.648 c 0.048 0.162 0.113 0.289 0.197 0.379 c 0.084 0.09 0.187 0.15 0.307 0.18 c 0.12 0.03 0.252 0.045 0.396 0.045 c 0.246 0 0.444 -0.028 0.594 -0.082 c 0.15 -0.06 0.268 -0.112 0.352 -0.16 l 0.143 0.484 c -0.084 0.054 -0.229 0.117 -0.439 0.189 c -0.21 0.066 -0.44 0.1 -0.686 0.1 c -0.288 0 -0.531 -0.035 -0.729 -0.107 c -0.192 -0.078 -0.349 -0.194 -0.469 -0.344 c -0.114 -0.156 -0.194 -0.346 -0.242 -0.574 c -0.048 -0.228 -0.072 -0.499 -0.072 -0.811 l 0 -4.285 l 0.586 -0.107 z m 3.607 3.787 c 0.203 0 0.377 0.025 0.521 0.076 c 0.148 0.051 0.27 0.123 0.367 0.217 c 0.098 0.09 0.17 0.199 0.217 0.328 c 0.047 0.125 0.07 0.26 0.07 0.408 c 0 0.238 -0.065 0.434 -0.193 0.586 c -0.125 0.148 -0.285 0.256 -0.484 0.322 c 0.109 0.027 0.213 0.068 0.314 0.127 c 0.105 0.055 0.199 0.127 0.281 0.217 c 0.082 0.086 0.149 0.192 0.199 0.316 c 0.051 0.125 0.076 0.272 0.076 0.439 c 0 0.172 -0.031 0.328 -0.094 0.473 c -0.059 0.144 -0.149 0.272 -0.27 0.381 c -0.117 0.105 -0.266 0.19 -0.449 0.252 c -0.183 0.059 -0.399 0.088 -0.645 0.088 c -0.129 0 -0.248 -0.01 -0.357 -0.029 c -0.105 -0.016 -0.197 -0.035 -0.279 -0.059 c -0.082 -0.023 -0.152 -0.047 -0.211 -0.07 c -0.055 -0.023 -0.096 -0.043 -0.123 -0.059 l 0.1 -0.34 c 0.023 0.016 0.063 0.035 0.117 0.059 c 0.055 0.023 0.119 0.047 0.193 0.07 c 0.078 0.019 0.162 0.037 0.256 0.053 c 0.098 0.016 0.203 0.023 0.316 0.023 c 0.37 0 0.637 -0.076 0.797 -0.229 c 0.16 -0.156 0.238 -0.364 0.238 -0.625 c 0 -0.172 -0.033 -0.315 -0.1 -0.428 c -0.062 -0.113 -0.149 -0.203 -0.262 -0.27 c -0.109 -0.07 -0.239 -0.119 -0.387 -0.146 c -0.144 -0.031 -0.299 -0.047 -0.463 -0.047 l -0.059 0 l 0 -0.314 l 0.135 0 c 0.105 0 0.213 -0.01 0.322 -0.029 c 0.113 -0.023 0.215 -0.065 0.305 -0.123 c 0.094 -0.059 0.17 -0.137 0.229 -0.234 c 0.062 -0.098 0.092 -0.223 0.092 -0.375 c 0 -0.129 -0.02 -0.236 -0.063 -0.326 c -0.043 -0.094 -0.102 -0.168 -0.176 -0.223 c -0.07 -0.055 -0.154 -0.094 -0.252 -0.117 c -0.094 -0.027 -0.194 -0.041 -0.299 -0.041 c -0.211 0 -0.373 0.029 -0.49 0.088 c -0.117 0.059 -0.213 0.113 -0.287 0.164 l -0.164 -0.299 c 0.039 -0.027 0.088 -0.059 0.146 -0.094 c 0.062 -0.035 0.135 -0.068 0.217 -0.1 c 0.082 -0.031 0.17 -0.057 0.268 -0.076 c 0.101 -0.023 0.211 -0.035 0.328 -0.035 z" style="fill:#353535;fill-opacity:1"/>
</svg>
